X:54
T:London March,The. TJD.54
M:C
L:1/8
Q:1/4=140
S:T.J.Dixon MS2, Lincolnshire, early 19thC
R:march
N:Repeat mark added at end
A:Lincolnshire, Holton le Moor
Z:vmp.R.Greig2010
K:G
B2B>BB2A2|G>Bd>ge2d2|e>gd>g c>gB>g|A2A>A A>cB>A|!
B2B>BB2A2|G>Bd>ge2d2|e>gd>g c>gB>g|b2a2g4:|!
|:d>cB>c d>dc>B|A>Bc>BB2A2|G>GG>A B>BB>c|d>dc>BB2A2|!
d>cB>c d>dc>B|A>Bc>BB2A2|G>GG>A B>BB>c|d>dc>B “^Da Capo”B2A2:|]

